!!!COM: Xulio Xesús León Pérez
!!!OTL: Pasacorredoiras na Manxeira
!!!OMV: pezas_pasacorredoiras_pasacorredoiras-na-manxeira_pasacorredoiras-na-manxeira-partitura.musicxml
**kern
*part1
*staff1
*I"Bagpipes
*I'Bag
*clefG^2
*k[]
*M2/4
=1
!LO:TX:a:t=Andante
*MM96
!LO:TX:a:t=[quarter]=96
8eeL
16ddL
16eeJJ
8ffL
8ggJ
=
8eeL
8ccJ
8ccL
8eeJ
=
8ddL
8bJ
8bL
8ddJ
=
16ccLL
16b
16cc
16ddJJ
4ee
=
8eeL
16ddL
16eeJJ
8ffL
8ggJ
=
8eeL
8ccJ
8ccL
8eeJ
=
8ddL
8ccJ
8bL
8ddJ
=
2cc
=||
*M2/4
!LO:TX:a:t=Andante
*MM96
!LO:TX:a:t=[quarter]=96
8eeL
16ddL
16eeJJ
8ffL
8ggJ
!!linebreak:original
=
8eeL
8ccJ
8ccL
8eeJ
=
8ddL
8bJ
8bL
8ddJ
=
16ccLL
16b
16cc
16ddJJ
4ee
=
8eeL
16ddL
16eeJJ
8ffL
8ggJ
=
8eeL
8ccJ
8ccL
8eeJ
=
8ddL
8ccJ
8bL
8ddJ
=
2cc
=||
8eeL
.
8ccJ
.
8eeL
8ccJ
=
2dd
.
.
.
.
!!linebreak:original
=
8ffL
.
8ddJ
.
8ffL
8ddJ
=
16ggLL
16ee
16ff
16ddJJ
4cc
=
8eeL
.
8ccJ
.
8eeL
8ccJ
=
16ddLL
16cc
16b
16ccJJ
16ddLL
16ee
16ff
16ggJJ
=
16eeLL
16cc
16ff
16eeJJ
16ggLL
16ee
16ff
16ddJJ
=
2cc
.
.
.
.
=||
8eeL
.
8ccJ
.
8eeL
8ccJ
=
2dd
.
.
.
.
!!linebreak:original
=
8ffL
.
8ddJ
.
8ffL
8ddJ
=
16ggLL
16ee
16ff
16ddJJ
4cc
=
8eeL
.
8ccJ
.
8eeL
8ccJ
=
16ddLL
16cc
16b
16ccJJ
16ddLL
16ee
16ff
16ggJJ
=
16eeLL
16cc
16ff
16eeJJ
16ggLL
16ee
16ff
16ddJJ
=
2cc
.
.
.
.
=||
8ccL
8eeJ
8ggL
8ffJ
=
4.dd
16ddLL
16ccJJ
!!linebreak:original
=
8bL
8ccJ
8ddL
8ffJ
!!linebreak:original
=
8eeL
[8ccJ
4cc]
=
8ccL
8eeJ
8ggL
8ffJ
=
8ddL
8ccJ
8bL
8ccJ
=
8ddL
8bJ
8ddL
8bJ
=
16ccLL
16b
16cc
16ddJJ
4ee
=||
8ccL
8eeJ
8ggL
8ffJ
=
4.dd
16ddLL
16ccJJ
=
8bL
8ccJ
8ddL
8ffJ
!!pagebreak:original
=
8eeL
[8ccJ
4cc]
=
8ccL
8eeJ
8ggL
8ffJ
=
8ddL
8ccJ
8bL
8ccJ
=
8ddL
8bJ
8ddL
8bJ
=
2cc
==
*-
!!!system-decoration: s1,s2
